X:1
T:O Lord, Within My Soul
T:O Lord, Within My Soul
T:Elisha Albright Hoffman
T:Elisha Albright Hoffman, 1900
T:Public Domain Courtesy of the Cyber Hymnal™
C:Elisha Albright Hoffman
Z:Public Domain
Z:Courtesy of the Cyber Hymnal™
%%score ( 1 2 ) ( 3 4 )
L:1/8
Q:1/4=115
M:4/4
K:Ab
V:1 treble 
V:2 treble 
V:3 bass 
V:4 bass 
V:1
 [CE]2 | [Ec]2 [Ec]2 [EB]2 [DB]2 | [CA]6 E2 | [Ed]2 [Ed]2 [Ec]2 [Ec]2 | [EB]6 E2 | %5
w: 1.~O|Lord, with- in my|soul, I|long for pur- i-|ty, To|
w: 2.~I|bend be- fore Thy|cross, And|know my heart can|be Cleansed|
w: 3.~I|pray at Thy dear|feet, Sal-|va- tion full en-|treat, And|
w: 4.~My|faith Thy Word be-|lieves, The|prom- ise made to|me, And|
 [Ee]2 [Ee]2 [Ed]2 [Ed]2 | ([=Ec]4 [FB]2) [FB]2 | [EA]4 [EG]4 | [EA]6 ||"^Refrain" [Ac]2 | %10
w: be com- plete and|whole * A-|lone through|Thee.||
w: from its sin and|dross * A-|lone through|Thee.|There|
w: want to feel my|love * In|Thee com-|plete.||
w: per- fect peace re-|ceives * A-|lone through|Thee.||
 [ce]2 [ce]2 [ce]2 [Ac]2 | [Ae]6 A2 | [Ac]2 [Ac]2 [Ad]2 [Ac]2 | [GB]6 [FA]2 | %14
w: ||||
w: is no o- ther|hope, There|is no o- ther|plea; Sal-|
w: ||||
w: ||||
 [Ad]2 [Ad]2 [Ad]2 [GB]2 | [Ac]2 [Ac]2 [Ac]2 [EA]2 | [FB]2 [FB]2 [EA]2 [EG]2 | [EA]6 |] %18
w: ||||
w: va- tion, full sal-|va- tion free, Must|come a- lone through|Thee.|
w: ||||
w: ||||
V:2
 x2 | x8 | x6 E2 | x8 | x6 E2 | x8 | x8 | x8 | x6 || x2 | x8 | x6 A2 | x8 | x8 | x8 | x8 | x8 | %17
 x6 |] %18
V:3
 [A,,A,]2 | [A,,A,]2 [C,A,]2 [E,G,]2 [E,G,]2 | [A,,E,]6 E,2 | [B,,G,]2 [B,,G,]2 [C,A,]2 [C,A,]2 | %4
w: ~|~ ~ ~ ~|~ ~|~ ~ ~ ~|
 [E,G,]6 [D,G,]2 | [C,A,]2 [C,A,]2 [B,,G,]2 [B,,G,]2 | ([C,G,]4 [D,F,]2) [D,B,]2 | [E,C]4 [E,B,]4 | %8
w: ~ ~|~ ~ ~ ~|~ * ~|~ ~|
 [A,,C]6 || z2 | z6 [A,E]2 | [A,C]2 [A,C]2 [A,C]2 [A,C]2 | [A,E]2 [A,E]2 [A,F]2 [A,E]2 | %13
w: ~||There|is no o- ther|hope, There is no|
 [E,E]2 [E,E]2 [E,E]2 [A,E]2 | [D,F]2 [D,F]2 [D,F]2 [E,E]2 | [A,E]2 [A,E]2 [A,E]2 [C,A,]2 | %16
w: o- ther plea; *|||
 [D,A,]2 [D,B,]2 [E,C]2 [E,D]2 | [A,,C]6 |] %18
w: ||
V:4
 x2 | x8 | x6 E,2 | x8 | x8 | x8 | x8 | x8 | x6 || x2 | x8 | x8 | x8 | x8 | x8 | x8 | x8 | x6 |] %18

